X:1
T:Allegro
T:from Sonata for Guitar in C, op. 20 no. 1
T:Anton Diabelli
%%score ( 1 2 3 )
L:1/8
Q:1/4=114
M:4/4
K:C
V:1 treble-8 nm="Guitar"
V:2 treble-8 
V:3 treble-8 
V:1
"^Allegro"!f! [EGc]2 [GB]2 z (G/A/) (B/c/)d/e/ | [Gdf]2 [Gce]2 z!p! g^de | c2 B2 c2 d2 | %3
 [ce]4 [Bd] GBc | d2 ^c2 d2 e2 | g3 f [Gce] Gce | ed!wedge!d!<(!!wedge!d ed!wedge!d!<)!!wedge!d | %7
!f! d!p!"^pont." g^f=f!f! e2 [ce]2 | [Bd]!p!"^dolce" g^f=f!f! e2 [ce]2 | %9
 [Bd]2 [GBg]2 !breath![GBg]2!p! ([GB][Ac]) | [Bd]3 [Ac] e3 d | c3 [GB] d3 c | Bc^cd e^fga | %13
 g3 (a/g/) ^f2 ([GB][Ac]) | [Bd]3 [Ac] e3 d | c3 [GB] d3 c | Bdec BdcA | %17
!<(! G2!<)!!>(! B4!>)! ^c2 | dggb a^gab |!<(! g2!<)!!>(! B4!>)! ^c2 |!f! dggb a^gab | %21
 [Bg]!p!"^pont." !0!B!3!d!2!^c !1!=c2!f! !2!!3![Ac^f]2 | %22
 !3![GBg]!p!"^dolce" !-(!!4!B!-)!!4!d!3!^c !2!=c2!f! !2!!1!!3![Ac^f]2 | [GBg]2 [GBg]2 [GBg]2 z2 :: %24
!ff! e3 f efef | e2 z2 z4 |!ff! e3 f efef | e2 z2 z4 |!f! [^GB] (fe) [GB] [Ac] (fe) [Ac] | %29
 [Bd]e[Ac]e!<(! [^GB]eee!<)! | [^GBe] (fe) [GB] [Ac] (fe) [Ac] | %31
 [Bd]e[Ac]e [^GB]!p!"^dolce" (!4!e^d)=d | [A^c]2 [^Gd]2 [=Gce]4 | %33
 [^ce]2 [df][ce] [df][=ce][Bd][Ac] | [^GB]2 [Ac]2 [Bd][df][ce][Bd] | [Bd]2 [Ac]2 f e2 ^d | %36
 ef e2 e d2 ^c | de d2 d c2 B | cdc!<(!B A d2!<)! c |!f! B!p!"^pont." g^f=f!f! e2 [ce]2 | %40
 [Bd]!p!"^dolce" g^f=f!f! e2 [ce]2 | [Bd]2 [GBg]2 !breath![GBg]2!p! [ce][df] | [eg]3 [df] [^ce]4 | %43
 [df]3 [ce] [Bd]4 | cgfe ^cdfa | c3 d/c/ B2 [ce][df] | [eg]3 [df] [^ce]4 | [df]3 [ce] [Bd]4 | %48
 cBAd egfd | c2!p!!<(! e4!<)! ^f2 |!f! geec d^cde | c2!p!!<(! e4!<)! ^f2 |!f! geec d^cde | %53
 c!p! eg^f =f2!f! [GB]2 | c!p! eg^f =f2!f! [GB]2 | [EGc]2 [EGc]2 [EGc]2 z2 :| %56
V:2
 C2 D2 z4 | B,2 C2 z4 | E2 D2 E2 B,2 | CDEF G z z2 | B,2 ^A,2 B,2 C2 | [DGB]4 C z z2 | %6
 [FA]4 [^FA]4 | [GB] z z2 CDEF | G z z2 CDEF | G2 G,2 G,2 z2 | z4 [E,^GB]3 z | [A,A]3 z [D^FA]3 z | %12
 G z z2 C2 z2 | [DB]4 [DA]2 z2 | z4 [E,^GB]3 z | [A,A]3 z [D^FA]3 z | G2 C2 D2 D2 | %17
 G,2 [EG]4 [_EG]2 | [DB]2 z2 [Dc]4 | [GB]2 [EG]4 [_EG]2 | [DB]2 z2 [Dc]4 | G z z2 z2 D2 | %22
 G, z z2 z2 D2 | G,2 G,2 G,2 z2 :: E,3 F, E,F,E,F, | E,2 z2 z4 | E,3 F, E,F,E,F, | E,2 z2 z4 | %28
 E,3 E, E,2 z2 | E,2 E,2 E,E,E,E, | E,3 E, E,2 z2 | E,2 E,2 E, z z2 | A,4 A,4 | D6 z2 | E4 E,4 | %35
 A,4 [Ac]3 z | [^GB]2 z2 [=G_B]3 z | [FA]2 z2 [F_A]3 z | [EG]2 z2 F z [^FA] z | G z z2 CDEF | %40
 G z z2 CDEF | G2 G,2 G,2 z2 | z4 A3 G | F3 z G3 F | [EG]2 z2 [FA]2 z2 | [G,-E]4 [G,D]2 z2 | %46
 z4 A3 G | F3 z G3 F | [EG]2 F2 [Gc]2 [GB]2 | C2 [Ac]4 [_Ac]2 | [Ge]2 z2 [G,FG]4 | %51
 [CEG]2 [Ac]4 [_Ac]2 | [Ge]2 z2 [G,FG]4 | [CEG] z z2 z2 [G,F]2 | [CEG] z z2 z2 [G,F]2 | %55
 C2 C2 C2 z2 :| %56
V:3
 x8 | x8 | cG BG cG dG | x8 | dG ^cG dG eG | x8 | x8 | x8 | x8 | x8 | x8 | x8 | x8 | x8 | x8 | x8 | %16
 x8 | x8 | x8 | x8 | x8 | x8 | x8 | x8 :: x8 | z!p! [^GB][GB][Ac] [Bd]2 [GB]2 | x8 | %27
 z!p! [Ac][Ac][Bd] [ce]2 [Ac]2 | x8 | x8 | x8 | x8 | x8 | x8 | x8 | x8 | x8 | x8 | x8 | x8 | x8 | %41
 x8 | x8 | x8 | x8 | x8 | x8 | x8 | x8 | x8 | x8 | x8 | x8 | x8 | x8 | x8 :| %56

